img/icon-student.svg

<svg width="110" height="94" viewBox="0 0 110 94" fill="none" xmlns="http://www.w3.org/2000/svg">
<g filter="url(#filter0_d_587_2117)">
<path fill-rule="evenodd" clip-rule="evenodd" d="M52.4059 15.0475C52.0621 15.0849 51.1831 15.2161 50.4526 15.3393C49.0648 15.573 18.9216 24.5514 17.7578 25.0775C16.6012 25.6004 15.8285 26.2785 15.3924 27.1538C14.6554 28.6328 14.9575 29.9781 16.2904 31.1513C17.2571 32.0022 18.2181 32.3824 22.9501 33.7859C25.1417 34.436 27.6161 35.1765 28.4487 35.4317L29.9628 35.8957L30.0182 42.1815C30.0801 49.1941 30.0765 49.168 31.1982 50.6512C34.4104 54.8983 44.8083 57.5783 56.7813 57.2445C66.8208 56.9646 74.6726 54.8238 78.0426 51.4475C79.0911 50.397 79.5893 49.5036 79.8279 48.2454C79.9171 47.7747 79.9865 44.8949 79.9865 41.6581V35.9071L81.3538 35.4956C82.1059 35.2692 83.1782 34.9465 83.7369 34.7785C84.2955 34.6104 84.8757 34.4351 85.026 34.3887C85.2845 34.3091 85.2995 34.8521 85.2995 44.2922V54.2798L84.6391 54.577C82.7557 55.4248 81.2202 57.1593 80.613 59.1254C80.3211 60.0707 80.2992 60.571 80.3009 66.2589C80.3023 70.8676 80.3544 72.5685 80.5117 73.1572C81.4865 76.8005 85.1365 79.198 88.7618 78.5764C91.7424 78.0653 94.0747 75.9179 94.7471 73.0654C95.0444 71.8039 95.0966 61.1056 94.8121 59.7652C94.3884 57.7706 92.8105 55.7079 90.988 54.7664L89.9868 54.2492L90.0262 43.5771L90.0656 32.9051L91.0813 32.5475C93.1041 31.8354 94.2417 30.9701 94.7458 29.7598C95.5045 27.9385 94.3272 25.9229 91.9407 24.957C90.4564 24.3563 60.9132 15.5738 59.5525 15.3288C58.2267 15.09 53.6673 14.9105 52.4059 15.0475ZM58.8127 19.9555C59.3284 20.0533 65.3758 21.8186 72.2514 23.8783C87.5466 28.4601 87.8443 28.5514 87.7674 28.6283C87.6886 28.7069 61.0154 36.7164 59.7369 37.0451C58.1028 37.4655 55.2202 37.6393 53.0225 37.45C50.7309 37.2527 51.6538 37.5064 34.5419 32.3683C27.5707 30.275 22.2374 28.597 22.3533 28.5336C22.4666 28.4716 28.7883 26.554 36.4013 24.2724C48.9253 20.519 50.9755 19.9509 52.7966 19.7306C53.7402 19.6165 57.8322 19.7694 58.8127 19.9555ZM42.2487 39.5672C46.1163 40.7292 49.9486 41.7923 50.7651 41.9298C52.7748 42.268 57.2024 42.2661 59.2321 41.9262C60.0642 41.7868 63.9143 40.7228 67.7874 39.5618C71.6608 38.4007 74.9353 37.4508 75.0642 37.4508C75.2676 37.4508 75.2986 38.1065 75.2986 42.4164C75.2986 46.8677 75.2706 47.422 75.0287 47.7675C73.6253 49.7711 68.2967 51.5319 61.2348 52.3254C58.5438 52.6278 50.7667 52.5828 48.0782 52.2492C43.6153 51.6954 39.8444 50.7447 37.4277 49.5641C35.9725 48.8532 35.4215 48.4554 34.9398 47.7675C34.6979 47.422 34.6699 46.8677 34.6699 42.4164C34.6699 37.7907 34.6887 37.451 34.9434 37.4527C35.0939 37.4536 38.3812 38.4053 42.2487 39.5672ZM88.4742 58.7729C89.2528 59.0506 89.6543 59.4212 90.006 60.1872C90.2671 60.7556 90.2934 61.3106 90.2965 66.3104C90.2987 69.8236 90.2399 71.9674 90.1337 72.2485C89.7636 73.2278 88.6421 74.0166 87.6197 74.0166C86.7903 74.0166 85.8106 73.4414 85.3754 72.6987L84.987 72.0358V66.299C84.987 60.1325 84.9874 60.128 85.8167 59.3536C86.2054 58.9906 87.1962 58.5602 87.6435 58.5602C87.7724 58.5602 88.1462 58.6558 88.4742 58.7729Z" fill="#06FF79"/>
</g>
<defs>
<filter id="filter0_d_587_2117" x="0" y="0" width="110" height="93.6744" filterUnits="userSpaceOnUse" color-interpolation-filters="sRGB">
<feFlood flood-opacity="0" result="BackgroundImageFix"/>
<feColorMatrix in="SourceAlpha" type="matrix" values="0 0 0 0 0 0 0 0 0 0 0 0 0 0 0 0 0 0 127 0" result="hardAlpha"/>
<feOffset/>
<feGaussianBlur stdDeviation="7.5"/>
<feComposite in2="hardAlpha" operator="out"/>
<feColorMatrix type="matrix" values="0 0 0 0 0.0463889 0 0 0 0 0.695833 0 0 0 0 0.346333 0 0 0 0.8 0"/>
<feBlend mode="normal" in2="BackgroundImageFix" result="effect1_dropShadow_587_2117"/>
<feBlend mode="normal" in="SourceGraphic" in2="effect1_dropShadow_587_2117" result="shape"/>
</filter>
</defs>
</svg>

<svg width="110" height="94" fill="none" xmlns="http://www.w3.org/2000/svg"><g filter="url(#filter0_d_587_2117)"><path fill-rule="evenodd" clip-rule="evenodd" d="M52.406 15.047c-.344.038-1.223.17-1.953.292-1.388.234-31.531 9.212-32.695 9.739-1.157.522-1.93 1.2-2.366 2.076-.737 1.479-.434 2.824.898 3.997.967.851 1.928 1.231 6.66 2.635 2.192.65 4.666 1.39 5.499 1.646l1.514.464.055 6.285c.062 7.013.058 6.987 1.18 8.47 3.212 4.247 13.61 6.927 25.583 6.593 10.04-.28 17.892-2.42 21.262-5.797 1.048-1.05 1.546-1.943 1.785-3.202.09-.47.159-3.35.159-6.587v-5.75l1.367-.412a10534.465 10534.465 0 013.672-1.107c.258-.08.273.463.273 9.903v9.988l-.66.297c-1.883.848-3.419 2.582-4.026 4.548-.292.946-.314 1.446-.312 7.134.001 4.609.053 6.31.21 6.898.976 3.644 4.626 6.041 8.25 5.42 2.981-.512 5.314-2.66 5.986-5.512.297-1.261.35-11.96.065-13.3-.424-1.994-2.001-4.057-3.824-4.999l-1.001-.517.04-10.672.039-10.672 1.015-.358c2.023-.712 3.16-1.577 3.665-2.787.758-1.822-.419-3.837-2.805-4.803-1.485-.6-31.028-9.383-32.389-9.628-1.325-.239-5.885-.418-7.146-.282zm6.407 4.909c.515.097 6.563 1.863 13.438 3.922 15.296 4.582 15.593 4.673 15.516 4.75-.078.079-26.752 8.088-28.03 8.417-1.634.42-4.517.594-6.715.405-2.291-.197-1.368.056-18.48-5.082-6.971-2.093-12.305-3.771-12.189-3.834.114-.062 6.435-1.98 14.048-4.262 12.524-3.753 14.574-4.321 16.396-4.541.943-.115 5.035.038 6.016.224zM42.249 39.567c3.867 1.162 7.7 2.225 8.516 2.363 2.01.338 6.437.336 8.467-.004.832-.14 4.682-1.203 8.555-2.364 3.874-1.161 7.148-2.111 7.277-2.111.204 0 .235.655.235 4.965 0 4.452-.028 5.006-.27 5.352-1.404 2.003-6.732 3.764-13.794 4.557-2.691.303-10.468.258-13.157-.076-4.463-.554-8.234-1.504-10.65-2.685-1.456-.71-2.006-1.109-2.488-1.797-.242-.345-.27-.9-.27-5.35 0-4.626.019-4.966.273-4.964.15 0 3.438.952 7.306 2.114zm46.225 19.206c.779.278 1.18.648 1.532 1.414.261.569.287 1.124.29 6.123.003 3.514-.056 5.657-.162 5.939-.37.979-1.492 1.768-2.514 1.768-.83 0-1.81-.576-2.245-1.318l-.388-.663v-5.737c0-6.167 0-6.171.83-6.945.388-.363 1.38-.794 1.827-.794.128 0 .502.096.83.213z" fill="#06FF79"/></g><defs><filter id="filter0_d_587_2117" x="0" y="0" width="110" height="93.674" filterUnits="userSpaceOnUse" color-interpolation-filters="sRGB"><feFlood flood-opacity="0" result="BackgroundImageFix"/><feColorMatrix in="SourceAlpha" values="0 0 0 0 0 0 0 0 0 0 0 0 0 0 0 0 0 0 127 0" result="hardAlpha"/><feOffset/><feGaussianBlur stdDeviation="7.5"/><feComposite in2="hardAlpha" operator="out"/><feColorMatrix values="0 0 0 0 0.0463889 0 0 0 0 0.695833 0 0 0 0 0.346333 0 0 0 0.8 0"/><feBlend in2="BackgroundImageFix" result="effect1_dropShadow_587_2117"/><feBlend in="SourceGraphic" in2="effect1_dropShadow_587_2117" result="shape"/></filter></defs></svg>
